X:1
T:Symphony No. 9 in D Minor, Op. 125, 4th Movement
T:Symphony No. 9 in D Minor, Op. 125, 4th Movement
T:Ludwig Van Beethoven
T:Vincent
T:Arranged for Piano
C:Vincent
%%score { 1 | 2 }
L:1/8
Q:1/4=144
M:6/8
K:D
V:1 treble nm="Piano" snm="Pno."
V:2 bass 
V:1
"^Allegro assai vivace"!ff! [Ff]2 [Ff] [ff']3- | [ff']2 [ff'] [Ff]3- | [Ff]2 [Ff] [F,F]3- | %3
 [F,F]2 [F,F] [Ff]3- | [Ff]2 [Ff] [ff']3- | [ff']2 [ff'] [Ff]3- | [Ff]2 [Ff] [F,F]3- | %7
 [F,F]2 [F,F] [Ff]3- | [Ff]2"_dim." F F3- | F2 F F3- | F2 F F3- | F2 F F3 |!p! [^DB^d]6 | %13
 [Ece]3 [F-^df]3 |"_più" F2 F F3- |"_più" F2 F F3- | F2 F F3- | F2 F F3 |!pp! ([DBd]6 | %19
 [Ece]3 [F-df]3) |"_sempre" F2 F F3- | F2 F F3- | F2!<(! F F3- | F2 F F3!<)! | %24
!ff![Q:1/4=172]"^Vivace"!8va(! ([fd'f']6 | [ge'g']3 [af'a']3)!8va)! | [FAdf]3 [FAdf]3 | %27
 [GAeg]3 [Afa]3 | [Afa]3 [GAeg]3 | [FAdf]3 [GAe]3 | [FAd]3 [FAd]3 | [EAe]3 [Fdf]3 | %32
 !>![FAdf]3- [FAdf]2 [EAce] | [EAce]2 G F2 E | [FAdf]3 [FAdf]3 | [GBdg]3 [A=cda]3 | %36
 [A=cda]3 [GBdg]3 | [FAdf]3 [Gde]3 | [FAd]3 [FAd]3 | [GAce]3 [Fdf]3 | !>![GAce]3- [GAce]2 [FAd] | %41
 [FAd]2 D D2 F | [EAce]3 [EAce]3 | [FAdf]3 [FAd]3 | [EAce]3 ([Fdf]2 [Geg]) | [Fce]3 [FAd]3 | %46
 [EAce]3 ([Fdf]2 [Geg]) | [Fcf]3 [F^Ae]3 | [FBd]3 [E^GBe]3 | [CEA]3 [FAdf]3- | [FAdf]3 [FAdf]3 | %51
 [GBdg]3 [A=cda]3 | [A=cda]3 [GBdg]3 | (!>![Adf]3 [Gg]2) [GBe] | [Fd]3 [FAd]3 | [Gde]3 [FAdf]3 | %56
 [GAce]3- [GAce]2 [Fd] | [FAd]2 D D2 F | [EAce]3 [EAce]3 | [FAdf]3 [FAd]3 | %60
 [EAce]3 ([Fdf]2 [Geg]) | [Fce]3 [FAd]3 | [EAce]3 ([Fdf]2 [Geg]) | [Fcf]3 [F^Ae]3 | %64
 [FBd]3 [E^GBe]3 | [CEA]3 [FAdf]3- | [FAdf]3 [FAdf]3 | [GBdg]3 [A=cda]3 | [A=cda]3 [GBdg]3 | %69
 (!>![Adf]3 [Gg]2) [GBe] | [Fd]3 [FAd]3 | [Gde]3 [FAdf]3 | [GAce]3- [GAce]2 [Fd] | [Fd]6 |] %74
V:2
 [F,,F,]2 [F,,F,] [F,F]3- | [F,F]2 [F,F] [F,,F,]3- | [F,,F,]2 [F,,F,] [F,,,F,,]3- | %3
 [F,,,F,,]2 [F,,,F,,] [F,,F,]3- | [F,,F,]2 [F,,F,] [F,F]3- | [F,F]2 [F,F] [F,,F,]3- | %6
 [F,,F,]2 [F,,F,] [F,,,F,,]3- | [F,,,F,,]2 [F,,,F,,] [F,,F,]3- | [F,,F,]2 F, F,3- | F,2 F, F,3- | %10
 F,2 F, F,3- | F,2 F, F,3 | [B,,F,]6- | [B,,F,-]6 | F,2 F, F,3- | F,2 F, F,3- | F,2 F, F,3- | %17
 F,2 F, F,3 | [B,,F,]6- | [B,,F,-]6 | F,2 F, F,3- | F,2 F, F,3- | F,2 F, F,3- | F,2 F, F,3 | %24
 ([A,,A,]6- | [A,,-A,]3 A,,B,,C,) | .D,.D,.C, .B,,.A,,.G,, | .F,,.E,,.D,, .C,,.B,,,.A,,, | %28
 .A,,.A,,,.B,,, .C,,.D,,.E,, | .F,,.G,,.A,, .B,,.A,,.C, | .D,.A,,.G,, .F,,.E,,.D,, | %31
 .C,,.D,,.B,,, .A,,,.B,,,.^G,,, | .A,,.A,,,.B,,, .C,,.D,,.E,, | .F,,.G,,.A,, .B,,.A,,.C, | %34
 .D,.B,,.A,, .G,,.F,,.E,, | .D,,.E,,.D,, .=C,,.B,,,.A,,, | .G,,,.A,,,.B,,, .=C,,.D,,.E,, | %37
 .F,,.G,,.A,, .B,,.G,,.G,, | .A,,.G,,.F,, .E,,.D,,.C,, | .B,,,.A,,,.D,, .A,,.F,,.D,, | %40
 .B,,.A,,.^G,, .A,,.A,,,.A,, | .D,,.A,.^G, .A,.F,.D, | .A,,.A,.^G, .A,.E,.C, | %43
 .A,,.A,.^G, .A,.F,.D, | .A,,.A,.B, .A,.A,,.A,, | .A,,.A,.^G, .A,.F,.D, | .A,,.A,.B, .A,.A,,.A,, | %47
 .^A,,.^A,.A, .F,,.F,.F, | .B,,.B,.B, .E,,.E,.E, | .A,,.A,.A, .A,,.A,.A, | %50
 .D,.D,.=C, .B,,.A,,.G,, | .F,,.E,,.D,, .=C,,.B,,,.A,,, | .G,,,.A,,,.B,,, .=C,,.D,,.E,, | %53
 .F,,.G,,.A,, .B,,.G,,.G,, | .A,,.G,,.F,, .E,,.D,,.C,, | .B,,,.A,,,.D,, .A,,.F,,.D,, | %56
 .B,,.A,,.^G,, .A,,.A,,,.A,, | .D,,.A,.^G, .A,.F,.D, | .A,,.A,.^G, .A,.E,.C, | %59
 .A,,.A,.^G, .A,.F,.D, | .A,,.A,.B, .A,.A,,.A,, | .A,,.A,.^G, .A,.F,.D, | .A,,.A,.B, .A,.A,,.A,, | %63
 .^A,,.^A,.A, .F,,.F,.F, | .B,,.B,.B, .E,,.E,.E, | .A,,.A,.A, .A,,.A,.A, | %66
 .D,.D,.=C, .B,,.A,,.G,, | .F,,.E,,.D,, .=C,,.B,,,.A,,, | .G,,,.A,,,.B,,, .=C,,.D,,.E,, | %69
 .F,,.G,,.A,, .B,,.G,,.G,, | .A,,.G,,.F,, .E,,.D,,.C,, | .B,,,.A,,,.D,, .A,,.F,,.D,, | %72
 .B,,.A,,.^G,, .A,,.A,,,.A,, |!8vb(! [D,,,D,,]6!8vb)! |] %74

